arkscan/icons/changenow.svg

<svg viewBox="0 0 20 14" fill="none" xmlns="http://www.w3.org/2000/svg">
  <path
    d="M13.8692 6.69552L14.1729 6.22165C14.4159 6.50112 14.7197 6.61047 15.1207 6.61047C15.546 6.61047 16.0077 6.41606 16.0077 5.79638V5.18884C15.7768 5.49261 15.4245 5.67487 15.0478 5.68702C14.2823 5.68702 13.7234 5.14024 13.7234 4.15603C13.7234 3.19613 14.2823 2.62503 15.0478 2.62503C15.4245 2.62503 15.789 2.80729 16.0077 3.11106V2.69795H16.6517V5.77207C16.6517 6.85348 15.8497 7.1451 15.1207 7.1451C14.6104 7.13295 14.2337 7.02359 13.8692 6.69552ZM14.3916 4.15603C14.3916 4.72712 14.7197 5.11593 15.23 5.11593C15.5338 5.11593 15.8133 4.95798 15.9955 4.71496V3.59709C15.8133 3.35407 15.5338 3.19612 15.23 3.19612C14.7197 3.19612 14.3916 3.5728 14.3916 4.15603ZM17.3078 4.18033C17.3078 3.31763 17.9396 2.61288 18.8266 2.61288C19.7258 2.61288 20.2969 3.30548 20.2969 4.24108V4.39905H17.9882C18.0368 4.88507 18.45 5.24959 18.936 5.22529C19.2519 5.22529 19.5557 5.10378 19.7865 4.89722L20.0782 5.3225C19.7379 5.61411 19.3127 5.77207 18.8631 5.75992C17.9761 5.75992 17.3078 5.12808 17.3078 4.18033ZM17.9882 3.93731H19.6772C19.6772 3.49989 19.3127 3.13537 18.8752 3.14752H18.8388C18.3771 3.13537 18.0004 3.48774 17.9882 3.93731ZM6.89468 4.76357C6.89468 4.07098 7.44147 3.79151 7.93965 3.79151C8.34062 3.79151 8.69298 3.92516 8.89954 4.18033V3.73076C8.89954 3.37839 8.62008 3.17181 8.19481 3.17181C7.85459 3.17181 7.53867 3.30548 7.3078 3.5485L7.0405 3.09891C7.38071 2.78299 7.83028 2.60073 8.29201 2.61288C8.96029 2.61288 9.53138 2.89235 9.53138 3.6943V5.67487H8.88739V5.35894C8.63223 5.62626 8.27985 5.77207 7.92749 5.75992C7.45361 5.75992 6.89468 5.43186 6.89468 4.76357ZM7.55082 4.77572C7.55082 5.09163 7.81814 5.31035 8.18266 5.31035C8.44998 5.3225 8.71728 5.21314 8.89954 5.00658V4.557C8.72943 4.35043 8.46213 4.22893 8.18266 4.25323C7.83029 4.24108 7.55082 4.44765 7.55082 4.77572ZM0.296875 4.18033C0.296875 3.28118 0.928704 2.61288 1.84 2.61288C2.42324 2.61288 2.77561 2.8559 2.98217 3.14752L2.5569 3.5485C2.39894 3.31763 2.14378 3.18397 1.86431 3.19612C1.31753 3.19612 0.965162 3.60924 0.965162 4.19248C0.965162 4.77571 1.32968 5.18884 1.86431 5.18884C2.14378 5.18884 2.39894 5.06733 2.5569 4.83647L2.98217 5.23743C2.77561 5.5169 2.42324 5.77207 1.84 5.77207C0.940854 5.75992 0.296875 5.09163 0.296875 4.18033ZM12.4111 5.68702V3.81581C12.4111 3.35408 12.1802 3.19612 11.8157 3.19612C11.5119 3.20827 11.2325 3.35407 11.0502 3.59709V5.68702H10.4062V2.69795H11.0502V3.11106C11.3175 2.80729 11.6942 2.63718 12.1073 2.62503C12.7513 2.62503 13.0672 2.9774 13.0672 3.58494V5.68702H12.4111ZM5.58242 5.68702V3.80366C5.58242 3.34193 5.3394 3.19612 4.97488 3.19612C4.67112 3.20827 4.39164 3.35407 4.20938 3.59709V5.68702H3.56541V0.948242H4.20938V3.09891C4.4767 2.79514 4.86553 2.62503 5.2665 2.61288C5.91049 2.61288 6.22639 2.95311 6.22639 3.56064V5.67487L5.58242 5.68702Z"
    fill="#7E8A9C" />
  <path
    d="M6.42172 10.6928C6.42172 8.99175 7.63678 7.74023 9.35003 7.74023C11.0633 7.74023 12.2783 8.99175 12.2783 10.6928C12.2783 12.3939 11.0633 13.6455 9.35003 13.6455C7.63678 13.6455 6.42172 12.3939 6.42172 10.6928ZM7.45453 10.6928C7.45453 11.8715 8.19571 12.7585 9.35003 12.7585C10.5043 12.7585 11.2455 11.8715 11.2455 10.6928C11.2455 9.51423 10.5043 8.62723 9.35003 8.62723C8.19571 8.62723 7.45453 9.50208 7.45453 10.6928ZM17.4424 13.5483L16.3245 9.33197L15.2188 13.5483H14.1495L12.5092 7.82528H13.6271L14.7449 12.236L15.9235 7.82528H16.7255L17.9041 12.236L19.0098 7.82528H20.1277L18.4995 13.5483H17.4424ZM4.48976 13.5483L1.5007 9.46563V13.5483H0.492188V7.82528H1.52499L4.4533 11.7986V7.82528H5.46181V13.5483H4.48976Z"
    fill="#60CD80" />
</svg>

<svg viewBox="0 0 20 14" fill="none" xmlns="http://www.w3.org/2000/svg"><path d="m13.87 6.696.303-.474c.243.28.547.388.948.388.425 0 .887-.194.887-.814V5.19c-.231.304-.583.486-.96.498-.766 0-1.325-.547-1.325-1.531 0-.96.56-1.531 1.325-1.531.377 0 .741.182.96.486v-.413h.644v3.074c0 1.081-.802 1.373-1.531 1.373-.51-.012-.887-.121-1.252-.45Zm.522-2.54c0 .571.328.96.838.96a.967.967 0 0 0 .765-.401V3.597a.967.967 0 0 0-.765-.4c-.51 0-.838.376-.838.959Zm2.916.024c0-.862.632-1.567 1.519-1.567.899 0 1.47.692 1.47 1.628V4.4h-2.309a.91.91 0 0 0 .948.826c.316 0 .62-.121.85-.328l.292.425c-.34.292-.765.45-1.215.438-.887 0-1.555-.632-1.555-1.58Zm.68-.243h1.69a.79.79 0 0 0-.803-.79h-.036a.818.818 0 0 0-.85.79Zm-11.093.827c0-.693.546-.972 1.045-.972.4 0 .753.133.96.388v-.45c0-.352-.28-.558-.705-.558-.34 0-.656.133-.887.377l-.268-.45c.34-.316.79-.498 1.252-.486.668 0 1.24.28 1.24 1.081v1.98h-.645V5.36a1.277 1.277 0 0 1-.96.4c-.473 0-1.032-.327-1.032-.995Zm.656.012c0 .316.267.534.632.534a.905.905 0 0 0 .717-.303v-.45a.84.84 0 0 0-.717-.304c-.353-.012-.632.195-.632.523ZM.297 4.18c0-.899.632-1.567 1.543-1.567.583 0 .936.243 1.142.535l-.425.4a.792.792 0 0 0-.693-.352c-.546 0-.899.413-.899.996 0 .584.365.997.9.997a.82.82 0 0 0 .692-.353l.425.401c-.206.28-.559.535-1.142.535C.94 5.76.297 5.092.297 4.18ZM12.41 5.687V3.816c0-.462-.23-.62-.595-.62a1.003 1.003 0 0 0-.766.401v2.09h-.644V2.698h.644v.413a1.446 1.446 0 0 1 1.057-.486c.644 0 .96.352.96.96v2.102h-.656Zm-6.829 0V3.804c0-.462-.243-.608-.607-.608a1.003 1.003 0 0 0-.766.401v2.09h-.644V.948h.644v2.15a1.467 1.467 0 0 1 1.058-.485c.643 0 .96.34.96.948v2.114l-.645.012Z" fill="#7E8A9C"/><path d="M6.422 10.693c0-1.701 1.215-2.953 2.928-2.953 1.713 0 2.928 1.252 2.928 2.953 0 1.7-1.215 2.953-2.928 2.953-1.713 0-2.928-1.252-2.928-2.953Zm1.033 0c0 1.178.74 2.066 1.895 2.066 1.154 0 1.896-.888 1.896-2.066 0-1.179-.742-2.066-1.896-2.066s-1.895.875-1.895 2.066Zm9.987 2.855-1.117-4.216-1.106 4.216h-1.07l-1.64-5.723h1.118l1.118 4.411 1.179-4.41h.802l1.178 4.41 1.106-4.41h1.118L18.5 13.547h-1.058Zm-12.952 0L1.5 9.466v4.082H.493V7.825h1.033L4.453 11.8V7.825h1.009v5.723H4.49Z" fill="#60CD80"/></svg>
